src/front_assets/svg/secure.svg

<svg width="19" height="19" viewBox="0 0 19 19" fill="none" xmlns="http://www.w3.org/2000/svg">
<path d="M7.58885 1.53391C8.26125 0.795642 9.42281 0.795642 10.0952 1.53391L10.9598 2.48329C11.2996 2.85641 11.788 3.0587 12.2921 3.03514L13.5748 2.9752C14.5722 2.92858 15.3937 3.74999 15.3471 4.74745L15.2871 6.03013C15.2635 6.53424 15.4658 7.02263 15.8389 7.36243L16.7883 8.22702C17.5266 8.89942 17.5266 10.061 16.7883 10.7334L15.8389 11.598C15.4658 11.9377 15.2635 12.4261 15.2871 12.9303L15.3471 14.213C15.3937 15.2104 14.5722 16.0318 13.5748 15.9852L12.2921 15.9252C11.788 15.9017 11.2996 16.104 10.9598 16.4771L10.0952 17.4265C9.42281 18.1648 8.26125 18.1648 7.58885 17.4265L6.72426 16.4771C6.38446 16.104 5.89607 15.9017 5.39196 15.9252L4.10928 15.9852C3.11182 16.0318 2.29041 15.2104 2.33703 14.213L2.39698 12.9303C2.42054 12.4261 2.21824 11.9377 1.84512 11.598L0.895743 10.7334C0.157474 10.061 0.157474 8.89942 0.895743 8.22702L1.84512 7.36243C2.21824 7.02263 2.42054 6.53424 2.39698 6.03013L2.33703 4.74744C2.29041 3.74999 3.11182 2.92858 4.10928 2.9752L5.39196 3.03514C5.89607 3.0587 6.38446 2.85641 6.72426 2.48329L7.58885 1.53391Z" stroke="#E2342D" stroke-width="1.4"/>
<path d="M6.29958 9.48043L7.99455 11.1754L11.3845 7.78546" stroke="#E2342D" stroke-width="1.4" stroke-linecap="round" stroke-linejoin="round"/>
</svg>

<svg xmlns="http://www.w3.org/2000/svg" width="19" height="19" fill="none"><path stroke="#E2342D" stroke-width="1.4" d="M7.589 1.534a1.695 1.695 0 0 1 2.506 0l.865.95c.34.372.828.575 1.332.551l1.283-.06a1.695 1.695 0 0 1 1.772 1.772l-.06 1.283c-.024.504.179.993.552 1.332l.95.865a1.695 1.695 0 0 1 0 2.506l-.95.865c-.373.34-.575.828-.552 1.332l.06 1.283a1.695 1.695 0 0 1-1.772 1.772l-1.283-.06a1.7 1.7 0 0 0-1.332.552l-.865.95a1.695 1.695 0 0 1-2.506 0l-.865-.95a1.7 1.7 0 0 0-1.332-.552l-1.283.06a1.695 1.695 0 0 1-1.772-1.772l.06-1.283a1.7 1.7 0 0 0-.552-1.332l-.95-.865a1.695 1.695 0 0 1 0-2.506l.95-.865c.373-.34.576-.828.552-1.332l-.06-1.283a1.695 1.695 0 0 1 1.772-1.772l1.283.06c.504.024.992-.179 1.332-.552z"/><path stroke="#E2342D" stroke-linecap="round" stroke-linejoin="round" stroke-width="1.4" d="m6.3 9.48 1.695 1.695 3.39-3.39"/></svg>
